Newaita-dark/devices/24/battery.svg

<svg height="24pt" viewBox="0 0 24 24" width="24pt" xmlns="http://www.w3.org/2000/svg" xmlns:xlink="http://www.w3.org/1999/xlink"><linearGradient id="a"><stop offset="0" stop-opacity=".313725"/><stop offset=".222222" stop-opacity=".27451"/><stop offset="1" stop-opacity="0"/></linearGradient><radialGradient id="b" cx="450.908936" cy="189.579361" gradientTransform="matrix(.00000013 -.0585994 -.105479 -.00000008 35.128857 47.696498)" gradientUnits="userSpaceOnUse" r="21.166656" xlink:href="#a"/><radialGradient id="c" cx="450.908936" cy="189.579361" gradientTransform="matrix(-.00000013 .0585994 .105479 .00000008 -11.314089 -5.64561)" gradientUnits="userSpaceOnUse" r="21.166656" xlink:href="#a"/><radialGradient id="d" cx="450.908936" cy="189.579361" gradientTransform="matrix(-.00000013 -.0585994 .105479 -.00000008 -11.314089 47.696498)" gradientUnits="userSpaceOnUse" r="21.166656" xlink:href="#a"/><radialGradient id="e" cx="450.908936" cy="189.579361" gradientTransform="matrix(.00000013 .0585994 -.105479 .00000008 35.128855 -5.645611)" gradientUnits="userSpaceOnUse" r="21.166656" xlink:href="#a"/><linearGradient id="f"><stop offset="0" stop-color="#bdbdbd"/><stop offset="1" stop-color="#e0e0e0"/></linearGradient><linearGradient id="g" gradientUnits="userSpaceOnUse" x1="11.907393" x2="11.907393" xlink:href="#f" y1="6.141209" y2="2.17207850005"/><linearGradient id="h" gradientUnits="userSpaceOnUse" x1="11.907393" x2="11.907393" xlink:href="#f" y1="21.02545025" y2="4.652784875"/><linearGradient id="i" gradientUnits="userSpaceOnUse" x1="11.907393" x2="11.907393" y1="21.02545025" y2="6.141209"><stop offset="0" stop-color="#26a69a"/><stop offset="1" stop-color="#4db6ac"/></linearGradient><linearGradient id="j" gradientTransform="matrix(.031253 0 0 .0468795 4.134506 10.079089)" gradientUnits="userSpaceOnUse" x1="254" x2="254" y1="233.5" y2="254.666672"><stop offset="0" stop-opacity=".27451"/><stop offset="1" stop-opacity="0"/></linearGradient><path d="m15.378906 21.027344h1.984375v-.996094h-1.984375zm0 0" fill="url(#b)"/><path d="m8.433594 21.027344h-1.984375v.992187h1.984375zm0 0" fill="url(#c)"/><path d="m8.433594 21.027344h-1.984375v-.996094h1.984375zm0 0" fill="url(#d)"/><path d="m15.378906 21.027344h1.984375v.992187h-1.984375zm0 0" fill="url(#e)"/><path d="m8.929688 2.171875h5.953124c.277344 0 .496094.222656.496094.496094v2.976562c0 .273438-.21875.496094-.496094.496094h-5.953124c-.273438 0-.496094-.222656-.496094-.496094v-2.976562c0-.273438.222656-.496094.496094-.496094zm0 0" fill="url(#g)"/><path d="m8.929688 2.171875c-.273438 0-.496094.222656-.496094.496094v.25c0-.277344.222656-.496094.496094-.496094h5.953124c.277344 0 .496094.21875.496094.496094v-.25c0-.273438-.21875-.496094-.496094-.496094zm0 0" fill="#fff" fill-opacity=".392157"/><path d="m8.929688 2.101562c-.3125 0-.566407.253907-.566407.566407v2.976562c0 .3125.253907.566407.566407.566407h5.953124c.3125 0 .566407-.253907.566407-.566407v-2.976562c0-.3125-.253907-.566407-.566407-.566407zm0 .140626h5.953124c.238282 0 .425782.1875.425782.425781v2.976562c0 .238281-.1875.425781-.425782.425781h-5.953124c-.234376 0-.425782-.1875-.425782-.425781v-2.976562c0-.238281.191406-.425781.425782-.425781zm0 0" fill="#212121"/><path d="m7.441406 4.652344h8.929688c.550781 0 .992187.445312.992187.992187v14.386719c0 .550781-.441406.996094-.992187.996094h-8.929688c-.546875 0-.992187-.445313-.992187-.996094v-14.386719c0-.546875.445312-.992187.992187-.992187zm0 0" fill="url(#h)"/><path d="m6.449219 6.140625v13.890625c0 .550781.441406.996094.992187.996094h8.929688c.550781 0 .992187-.445313.992187-.996094v-13.890625zm0 0" fill="url(#i)"/><path d="m8.433594 21.027344h6.945312v.992187h-6.945312zm0 0" fill="url(#j)"/><path d="m7.441406 4.652344c-.550781 0-.992187.441406-.992187.992187v.25c0-.550781.441406-.992187.992187-.992187h8.929688c.550781 0 .992187.441406.992187.992187v-.25c0-.550781-.441406-.992187-.992187-.992187zm0 0" fill="#fff" fill-opacity=".392157"/><path d="m7.441406 21.027344c-.550781 0-.992187-.445313-.992187-.996094v-.246094c0 .550782.441406.992188.992187.992188h8.929688c.550781 0 .992187-.441406.992187-.992188v.246094c0 .550781-.441406.996094-.992187.996094zm0 0" fill-opacity=".235294"/><path d="m7.441406 4.582031c-.585937 0-1.0625.476563-1.0625 1.0625v14.386719c0 .589844.476563 1.066406 1.0625 1.066406h8.929688c.589844 0 1.0625-.476562 1.0625-1.066406v-14.386719c0-.585937-.472656-1.0625-1.0625-1.0625zm0 .140625h8.929688c.511718 0 .921875.410156.921875.921875v14.386719c0 .515625-.410157.925781-.921875.925781h-8.929688c-.511718 0-.921875-.410156-.921875-.925781v-14.386719c0-.511719.410157-.921875.921875-.921875zm0 0" fill="#212121"/></svg>

<?xml version="1.0" encoding="UTF-8"?>
<svg xmlns="http://www.w3.org/2000/svg" xmlns:xlink="http://www.w3.org/1999/xlink" width="24pt" height="24pt" viewBox="0 0 24 24" version="1.1">
<defs>
<radialGradient id="radial0" gradientUnits="userSpaceOnUse" cx="450.908936" cy="189.579361" fx="450.908936" fy="189.579361" r="21.166656" gradientTransform="matrix(0.000000130628,-0.0585994,-0.105479,-0.0000000761539,35.128857,47.696498)">
<stop offset="0" style="stop-color:rgb(0%,0%,0%);stop-opacity:0.313725;"/>
<stop offset="0.222222" style="stop-color:rgb(0%,0%,0%);stop-opacity:0.27451;"/>
<stop offset="1" style="stop-color:rgb(0%,0%,0%);stop-opacity:0;"/>
</radialGradient>
<radialGradient id="radial1" gradientUnits="userSpaceOnUse" cx="450.908936" cy="189.579361" fx="450.908936" fy="189.579361" r="21.166656" gradientTransform="matrix(-0.000000130628,0.0585994,0.105479,0.0000000761539,-11.314089,-5.64561)">
<stop offset="0" style="stop-color:rgb(0%,0%,0%);stop-opacity:0.313725;"/>
<stop offset="0.222222" style="stop-color:rgb(0%,0%,0%);stop-opacity:0.27451;"/>
<stop offset="1" style="stop-color:rgb(0%,0%,0%);stop-opacity:0;"/>
</radialGradient>
<radialGradient id="radial2" gradientUnits="userSpaceOnUse" cx="450.908936" cy="189.579361" fx="450.908936" fy="189.579361" r="21.166656" gradientTransform="matrix(-0.000000130628,-0.0585994,0.105479,-0.0000000761539,-11.314089,47.696498)">
<stop offset="0" style="stop-color:rgb(0%,0%,0%);stop-opacity:0.313725;"/>
<stop offset="0.222222" style="stop-color:rgb(0%,0%,0%);stop-opacity:0.27451;"/>
<stop offset="1" style="stop-color:rgb(0%,0%,0%);stop-opacity:0;"/>
</radialGradient>
<radialGradient id="radial3" gradientUnits="userSpaceOnUse" cx="450.908936" cy="189.579361" fx="450.908936" fy="189.579361" r="21.166656" gradientTransform="matrix(0.000000130628,0.0585994,-0.105479,0.0000000761539,35.128855,-5.645611)">
<stop offset="0" style="stop-color:rgb(0%,0%,0%);stop-opacity:0.313725;"/>
<stop offset="0.222222" style="stop-color:rgb(0%,0%,0%);stop-opacity:0.27451;"/>
<stop offset="1" style="stop-color:rgb(0%,0%,0%);stop-opacity:0;"/>
</radialGradient>
<linearGradient id="linear0" gradientUnits="userSpaceOnUse" x1="254" y1="-84" x2="254" y2="-168.666656" gradientTransform="matrix(0.0468795,0,0,0.0468795,0,10.079087)">
<stop offset="0" style="stop-color:rgb(74.117647%,74.117647%,74.117647%);stop-opacity:1;"/>
<stop offset="1" style="stop-color:rgb(87.843137%,87.843137%,87.843137%);stop-opacity:1;"/>
</linearGradient>
<linearGradient id="linear1" gradientUnits="userSpaceOnUse" x1="254" y1="233.5" x2="254" y2="-115.75" gradientTransform="matrix(0.0468795,0,0,0.0468795,0,10.079087)">
<stop offset="0" style="stop-color:rgb(74.117647%,74.117647%,74.117647%);stop-opacity:1;"/>
<stop offset="1" style="stop-color:rgb(87.843137%,87.843137%,87.843137%);stop-opacity:1;"/>
</linearGradient>
<linearGradient id="linear2" gradientUnits="userSpaceOnUse" x1="254" y1="233.5" x2="254" y2="-84" gradientTransform="matrix(0.0468795,0,0,0.0468795,0,10.079087)">
<stop offset="0" style="stop-color:rgb(14.901961%,65.098039%,60.392157%);stop-opacity:1;"/>
<stop offset="1" style="stop-color:rgb(30.196078%,71.372549%,67.45098%);stop-opacity:1;"/>
</linearGradient>
<linearGradient id="linear3" gradientUnits="userSpaceOnUse" x1="254" y1="233.5" x2="254" y2="254.666672" gradientTransform="matrix(0.031253,0,0,0.0468795,4.134506,10.079089)">
<stop offset="0" style="stop-color:rgb(0%,0%,0%);stop-opacity:0.27451;"/>
<stop offset="1" style="stop-color:rgb(0%,0%,0%);stop-opacity:0;"/>
</linearGradient>
</defs>
<g id="surface1">
<path style=" stroke:none;fill-rule:nonzero;fill:url(#radial0);" d="M 15.378906 21.027344 L 17.363281 21.027344 L 17.363281 20.03125 L 15.378906 20.03125 Z M 15.378906 21.027344 "/>
<path style=" stroke:none;fill-rule:nonzero;fill:url(#radial1);" d="M 8.433594 21.027344 L 6.449219 21.027344 L 6.449219 22.019531 L 8.433594 22.019531 Z M 8.433594 21.027344 "/>
<path style=" stroke:none;fill-rule:nonzero;fill:url(#radial2);" d="M 8.433594 21.027344 L 6.449219 21.027344 L 6.449219 20.03125 L 8.433594 20.03125 Z M 8.433594 21.027344 "/>
<path style=" stroke:none;fill-rule:nonzero;fill:url(#radial3);" d="M 15.378906 21.027344 L 17.363281 21.027344 L 17.363281 22.019531 L 15.378906 22.019531 Z M 15.378906 21.027344 "/>
<path style=" stroke:none;fill-rule:nonzero;fill:url(#linear0);" d="M 8.929688 2.171875 L 14.882812 2.171875 C 15.160156 2.171875 15.378906 2.394531 15.378906 2.667969 L 15.378906 5.644531 C 15.378906 5.917969 15.160156 6.140625 14.882812 6.140625 L 8.929688 6.140625 C 8.65625 6.140625 8.433594 5.917969 8.433594 5.644531 L 8.433594 2.667969 C 8.433594 2.394531 8.65625 2.171875 8.929688 2.171875 Z M 8.929688 2.171875 "/>
<path style=" stroke:none;fill-rule:nonzero;fill:rgb(100%,100%,100%);fill-opacity:0.392157;" d="M 8.929688 2.171875 C 8.65625 2.171875 8.433594 2.394531 8.433594 2.667969 L 8.433594 2.917969 C 8.433594 2.640625 8.65625 2.421875 8.929688 2.421875 L 14.882812 2.421875 C 15.160156 2.421875 15.378906 2.640625 15.378906 2.917969 L 15.378906 2.667969 C 15.378906 2.394531 15.160156 2.171875 14.882812 2.171875 Z M 8.929688 2.171875 "/>
<path style=" stroke:none;fill-rule:nonzero;fill:rgb(12.941177%,12.941177%,12.941177%);fill-opacity:1;" d="M 8.929688 2.101562 C 8.617188 2.101562 8.363281 2.355469 8.363281 2.667969 L 8.363281 5.644531 C 8.363281 5.957031 8.617188 6.210938 8.929688 6.210938 L 14.882812 6.210938 C 15.195312 6.210938 15.449219 5.957031 15.449219 5.644531 L 15.449219 2.667969 C 15.449219 2.355469 15.195312 2.101562 14.882812 2.101562 Z M 8.929688 2.242188 L 14.882812 2.242188 C 15.121094 2.242188 15.308594 2.429688 15.308594 2.667969 L 15.308594 5.644531 C 15.308594 5.882812 15.121094 6.070312 14.882812 6.070312 L 8.929688 6.070312 C 8.695312 6.070312 8.503906 5.882812 8.503906 5.644531 L 8.503906 2.667969 C 8.503906 2.429688 8.695312 2.242188 8.929688 2.242188 Z M 8.929688 2.242188 "/>
<path style=" stroke:none;fill-rule:nonzero;fill:url(#linear1);" d="M 7.441406 4.652344 L 16.371094 4.652344 C 16.921875 4.652344 17.363281 5.097656 17.363281 5.644531 L 17.363281 20.03125 C 17.363281 20.582031 16.921875 21.027344 16.371094 21.027344 L 7.441406 21.027344 C 6.894531 21.027344 6.449219 20.582031 6.449219 20.03125 L 6.449219 5.644531 C 6.449219 5.097656 6.894531 4.652344 7.441406 4.652344 Z M 7.441406 4.652344 "/>
<path style=" stroke:none;fill-rule:nonzero;fill:url(#linear2);" d="M 6.449219 6.140625 L 6.449219 20.03125 C 6.449219 20.582031 6.890625 21.027344 7.441406 21.027344 L 16.371094 21.027344 C 16.921875 21.027344 17.363281 20.582031 17.363281 20.03125 L 17.363281 6.140625 Z M 6.449219 6.140625 "/>
<path style=" stroke:none;fill-rule:nonzero;fill:url(#linear3);" d="M 8.433594 21.027344 L 15.378906 21.027344 L 15.378906 22.019531 L 8.433594 22.019531 Z M 8.433594 21.027344 "/>
<path style=" stroke:none;fill-rule:nonzero;fill:rgb(100%,100%,100%);fill-opacity:0.392157;" d="M 7.441406 4.652344 C 6.890625 4.652344 6.449219 5.09375 6.449219 5.644531 L 6.449219 5.894531 C 6.449219 5.34375 6.890625 4.902344 7.441406 4.902344 L 16.371094 4.902344 C 16.921875 4.902344 17.363281 5.34375 17.363281 5.894531 L 17.363281 5.644531 C 17.363281 5.09375 16.921875 4.652344 16.371094 4.652344 Z M 7.441406 4.652344 "/>
<path style=" stroke:none;fill-rule:nonzero;fill:rgb(0%,0%,0%);fill-opacity:0.235294;" d="M 7.441406 21.027344 C 6.890625 21.027344 6.449219 20.582031 6.449219 20.03125 L 6.449219 19.785156 C 6.449219 20.335938 6.890625 20.777344 7.441406 20.777344 L 16.371094 20.777344 C 16.921875 20.777344 17.363281 20.335938 17.363281 19.785156 L 17.363281 20.03125 C 17.363281 20.582031 16.921875 21.027344 16.371094 21.027344 Z M 7.441406 21.027344 "/>
<path style=" stroke:none;fill-rule:nonzero;fill:rgb(12.941177%,12.941177%,12.941177%);fill-opacity:1;" d="M 7.441406 4.582031 C 6.855469 4.582031 6.378906 5.058594 6.378906 5.644531 L 6.378906 20.03125 C 6.378906 20.621094 6.855469 21.097656 7.441406 21.097656 L 16.371094 21.097656 C 16.960938 21.097656 17.433594 20.621094 17.433594 20.03125 L 17.433594 5.644531 C 17.433594 5.058594 16.960938 4.582031 16.371094 4.582031 Z M 7.441406 4.722656 L 16.371094 4.722656 C 16.882812 4.722656 17.292969 5.132812 17.292969 5.644531 L 17.292969 20.03125 C 17.292969 20.546875 16.882812 20.957031 16.371094 20.957031 L 7.441406 20.957031 C 6.929688 20.957031 6.519531 20.546875 6.519531 20.03125 L 6.519531 5.644531 C 6.519531 5.132812 6.929688 4.722656 7.441406 4.722656 Z M 7.441406 4.722656 "/>
</g>
</svg>
